!!!SOCIAL_FUNCTION:	songs of war
!!!PDT:	1918

Specific Region: Dakotas, Minnesota, Montana, Nebraska
!!!REG: Dakotas and Montana
!!!LING_GROUP: Siouan
!!!LANG: Tone
!!!OTL@ENG: You Should Give Up the Warpath
!!!ONM: No. 154
**kern
*Imale
*clefG2
*k[b-e-]
*M3/4
*MM116
8g
8d
=1
2g
16.a
32g
8g
=2
16g
8.d
4d
8d
8c
=3
2d
16.g
32d
8d
*clefF4
=4
16d
8.c
4c
8c
8B-
=5
2c
16.e-
32c
8c
=6
16c
8.B-
8G
8G
8B-
8c
=7||
*M2/4
2B-
=8||
*M3/4
8c
8B-
16.B-
32G
8G
4D
=9
8B-
8B-
8G
8B-
8G
8G
=10||
*M2/4
2G
=11
[2G
=12
4G]
8d
8d
=13||
*M3/4
4d
8d
8g
16g
8.d
=14
4c
4c
8c
8B-
=15||
*M2/4
4c
8.c
16e-
=16||
*M3/4
8e-
8c
8c
8B-
4G
=17
8B-
8c
4B-
8.B-
16c
=18
(8c
8B-)
8B-
8G
4F
=19
8B-
8B-
8G
8B-
8G
8G
=20||
*M2/4
2G
=21
2G
==
*-
!!!CNT: Native American -- Sioux
!!!MRD: 1911/07//-1914///
!!!OCL: Frances Densmore
!!!YOR1: Teton Sioux Music, Bulletin 61,
!!!YOR2: Bureau of American Ethnology, Smithsonian Institution
!!!PPR: Government Printing Office
!!!PPP: Washington, D.C.
!!!PDT: 1918///
!!!ENC: Craig Stuart Sapp
!!!END: 2002/03/25/
!!!EEV: 2002/03/31/
!!!AGN: War Song/Song of a Typical War Expedition
!!!MPN@@SIO: Oku'te
!!!MPN@ENG: Shooter
!!!TXO: Teton Sioux
!!!MLC: Standing Rock Reservation, South Dakota, United States of America
!!!ARL: 45.9/-100.7#
!!!catalog: Catalogue No. 576
!!!PPG: 374
!!!EFL: 159/245
!!!VTS: 1604702981
